X:1
T:Daniel S. Kenny
M:C|
L:1/8
Q:80
C:Iain Speirs
S:Hornpipe
K:HP
|: g/2f/2|
{g}e/2A/2{g}A/2e/2{g}A/2e/2{g}d/2{e}A/2|
{g}d/2e/2{g}A/2d/2{gef}e{gf}g|  !
{a}G/2{d}B/2{g}B/2e/2{g}e/2d/2{gde}d/2B/2|
{g}B/2d/2{g}G/2{d}B/2{g}d/2{c}d/2g/2f/2{g}e/2A/2{g}A/2e/2{g}A/2e/2{g}d/2
{e}A/2|
{g}d/2e/2{g}A/2d/2{gef}e{gf}g|  !
{a}e/2f/2{a}g/2e/2{g}B/2g/2{a}f/2d/2|
{gef}e2{A}e:| |:
{g}e/2f/2|  !
{a}g/2e/2{g}B/2a/2g/2e/2{A}e/2d/2|
{g}e/2a/2g/2e/2{gf}g{a}B/2d/2|
{g}d/2{e}G/2{g}G/2{d}B/2{g}e/2d/2{gde}d/2B/2|  !
{a}g/2e/2{g}f/2d/2{gef}e{g}e/2f/2|1 {a}g/2e/2{g}B/2a/2g/2e/2{A}e/2d/2|
{g}e/2a/2g/2e/2{gf}g{a}B/2d/2|
{a}e/2f/2{a}g/2e/2{g}B/2g/2{a}f/2d/2|  !
{gef}e2{A}e:| |:
g/2f/2|
{g}e/2{A}e/2{g}e/2f/2{g}e/2A/2{g}B/2d/2|  !
{a}g/2e/2{g}f/2d/2{gef}e{a}g/2e/2|
{g}d/2{c}d/2{g}d/2e/2{gde}d/2G/2{g}B/2{d}G/2|
{g}B/2d/2{g}G/2{d}B/2{g}d/2{c}d/2g/2f/2{g}e/2{A}e/2{g}e/2f/2{g}e/2A/2{g}
B/2d/2|  !
{a}g/2e/2{g}f/2d/2{gef}e{gf}g|
{a}e/2f/2{a}g/2e/2{g}B/2g/2{a}f/2d/2|
{gef}e2{A}e:| |:  !
{g}e/2f/2|
{a}g/2{f}g/2{a}g/2a/2g/2e/2{g}f/2d/2|
{g}e/2a/2g/2e/2{gf}g{a}B/2d/2|  !
{g}d/2{e}G/2{g}G/2B/2{g}e/2d/2{gde}d/2B/2|
{a}g/2e/2{g}f/2d/2{gef}e{g}e/2f/2|1 {a}g/2{f}g/2{a}g/2a/2g/2e/2{g}f/2d/2
|
{g}e/2a/2g/2e/2{gf}g{a}B/2d/2|  !
{a}e/2f/2{a}g/2e/2{g}B/2g/2{a}f/2d/2|
{gef}e2{A}e:|

